X:1
T:Title
%%score { ( 1 3 ) | 2 }
L:1/8
Q:1/4=94
M:4/4
K:D
V:1 treble nm="Grand Piano"
V:3 treble 
V:2 bass 
V:1
 FFFF F2 D2 | [FA][FA][GA][EA] [FA]4 | BBBB [FA]2 F2 | EFGF [A,CE]4 | %4
w: Grace~P.~Nicholson * * * * *||||
 [A,DF][F,DF][A,F][^A,EF] [B,DF]2 [F,D]2 | [A,GA][CGA][DFA][EGA] [DFA]4 | %6
w: ||
 [DGB][Bd][CAc][DGB] [DFA][=CDF][B,DB][B,EG] | [DF]2[K:bass] [G,CE]2 [F,D]4 | %8
w: ||
 [A,CE][A,CE][G,CE][K:treble][F,DF] [EG][DG] [CG]2 | FFF[EG] [FA]4 | [GB][Bd][Ac][GB] [FA]2 F2 | %11
w: |||
 z4 A4[K:bass] | FFF[^A,EF] [B,DF]2 [F,D]2 | [A,GA][CGA][DFA][EGA] [DFA]4 | %14
w: |||
 [DGB][Bd][CAc][DGB] [DFA][=CDF][B,DB][B,EG] |[M:8/4] [DF]2[K:bass] [G,CE]2 [F,D]4 z8 |] %16
w: ||
V:2
 [D,A,D][D,^G,D][D,A,D][D,B,D] [D,A,D]2 [D,F,]2 | [D,A,][D,A,][D,B,][D,C] [D,D]4 | %2
 [G,B,][G,A,C][G,B,D][G,CE] [D,D]2 [D,A,D]2 | [G,A,C][F,A,D][E,A,C][D,A,D] A,,4 | %4
 D,D,D,C, B,,2 B,,2 | C,A,,B,,C, D,4 | G,[G,B,]G,G, D,D,G,E, | A,2 A,,2 D,4 | %8
 A,,A,,A,,A,, [A,,E,][A,,E,] [A,,A,]2 | [D,A,D][D,A,D][D,A,D][D,A,] [D,D]4 | %10
 [G,D][G,B,][G,C][G,D] [D,D]2 [D,A,D]2 | [E,^G,D][E,A,D][E,B,D][E,G,D] [A,C]4 | %12
 [D,A,D][D,F,D][D,A,]C, B,,2 B,,2 | C,A,,B,,C, D,4 | G,[G,B,]G,G, D,D,G,E, | %15
[M:8/4] A,2 A,,2 D,4 z8 |] %16
V:3
 x8 | x8 | x8 | x8 | x8 | x8 | x8 | x2[K:bass] x6 | x3[K:treble] x5 | x8 | x8 | %11
 EF^GB z[K:bass] G,F,E, | x8 | x8 | x8 |[M:8/4] x2[K:bass] x14 |] %16

